Adwaita++-Light/emblems/8/emblem-unmounted.svg

<svg height="8" viewBox="0 0 8 8" width="8" xmlns="http://www.w3.org/2000/svg">
  <rect fill="#ff7f2a" height="8" rx="1.143" width="8"/>
  <path d="m2 2v.7070312l1.2929688 1.2929688-1.2929688 1.2929688v.7070312h.7070312l1.2929688-1.2929688 1.2929688 1.2929688h.7070312v-.7070312l-1.2929688-1.2929688 1.2929688-1.2929688v-.7070312h-.7070312l-1.2929688 1.2929688-1.2929688-1.2929688z" fill="#fff"/>
</svg>

<svg xmlns="http://www.w3.org/2000/svg" width="8" height="8" version="1.1" viewBox="0 0 8 8">
 <rect style="fill:#ff7f2a" width="8" height="8" x="0" y="0" rx="1.143" ry="1.143"/>
 <path style="fill:#ffffff" d="M 2 2 L 2 2.7070312 L 3.2929688 4 L 2 5.2929688 L 2 6 L 2.7070312 6 L 4 4.7070312 L 5.2929688 6 L 6 6 L 6 5.2929688 L 4.7070312 4 L 6 2.7070312 L 6 2 L 5.2929688 2 L 4 3.2929688 L 2.7070312 2 L 2 2 z"/>
</svg>
